src/assets/objectifs/hourglass.svg

<svg xmlns="http://www.w3.org/2000/svg" viewBox="0 0 64 64" id="hourglass"><path d="M32.01 33.88H32c-7.95 0-15.28-4.68-18.67-11.93a20.328 20.328 0 0 1-1.93-8.68V1.88C11.4.84 12.24 0 13.28 0h37.45c1.04 0 1.88.84 1.88 1.88v11.39c0 3.02-.65 5.94-1.93 8.68-3.39 7.25-10.72 11.93-18.67 11.93zM15.16 3.76v9.51c0 2.47.53 4.85 1.58 7.08 2.77 5.93 8.76 9.76 15.26 9.76h.01c6.5 0 12.49-3.83 15.26-9.76 1.05-2.23 1.58-4.62 1.58-7.09v-9.5H15.16z"></path><path d="M32.01 33.88a1.88 1.88 0 1 1-.01-3.76c1.04 0 1.89.84 1.89 1.88a1.884 1.884 0 0 1-1.88 1.88z"></path><path d="M50.73 64H13.27c-1.04 0-1.88-.84-1.88-1.88V50.73c0-11.36 9.25-20.61 20.61-20.61s20.61 9.25 20.61 20.61v11.39c0 1.04-.84 1.88-1.88 1.88zm-35.57-3.76h33.69v-9.51c0-9.29-7.56-16.84-16.84-16.84s-16.84 7.56-16.84 16.84v9.51zm35.2-43.73c-2.53 0-3.87-.34-5.05-.64-1.11-.28-2.07-.52-4.13-.52s-3.02.24-4.13.52c-1.18.3-2.52.64-5.05.64s-3.87-.34-5.05-.64c-1.11-.28-2.07-.52-4.13-.52s-3.02.24-4.13.52c-1.18.3-2.52.64-5.05.64-1.04 0-1.88-.84-1.88-1.88s.84-1.88 1.88-1.88c2.06 0 3.02-.24 4.13-.52 1.18-.3 2.52-.64 5.05-.64s3.87.34 5.05.64c1.11.28 2.07.52 4.13.52s3.02-.24 4.13-.52c1.18-.3 2.52-.64 5.05-.64s3.87.34 5.05.64c1.11.28 2.07.52 4.13.52 1.04 0 1.88.84 1.88 1.88s-.84 1.88-1.88 1.88zm7.7-12.74H5.94c-1.04 0-1.88-.84-1.88-1.88S4.9 0 5.94 0h52.13c1.04 0 1.88.84 1.88 1.88s-.85 1.89-1.89 1.89z"></path><path d="M58.06 64H5.94c-1.04 0-1.88-.84-1.88-1.88s.84-1.88 1.88-1.88h52.13c1.04 0 1.88.84 1.88 1.88S59.1 64 58.06 64zm-7.33-6.85c-.08 0-.17-.01-.25-.02-4.06-.54-9.77-2.05-13.9-6.17-5.61-5.62-6.39-14.21-6.46-17.64-.03-.84 0-1.36 0-1.42.06-.99.88-1.77 1.88-1.77h.22a1.878 1.878 0 0 1 1.65 2.78c0 .1 0 .2.01.31.06 3 .71 10.43 5.36 15.08 3.38 3.37 8.25 4.64 11.74 5.1 1.03.14 1.75 1.08 1.62 2.12-.13.95-.94 1.63-1.87 1.63z"></path><path d="M13.27 57.15c-.93 0-1.74-.69-1.86-1.63a1.89 1.89 0 0 1 1.62-2.12c3.48-.47 8.34-1.73 11.72-5.1 4.66-4.66 5.31-12.08 5.37-15.06 0-.12.01-.23.01-.34a1.93 1.93 0 0 1-.23-.89c0-1.04.84-1.88 1.88-1.88H32c1 0 1.82.77 1.88 1.77 0 .06.03.59 0 1.45-.07 3.4-.85 11.99-6.47 17.61-4.12 4.12-9.82 5.63-13.88 6.17-.09.02-.17.02-.26.02z"></path></svg>

<?xml version="1.0" encoding="utf-8"?>
<svg width="64px" height="64px" viewBox="0 0 64 64" version="1.1" xmlns:xlink="http://www.w3.org/1999/xlink" xmlns="http://www.w3.org/2000/svg">
  <defs>
    <path d="M0 0L64 0L64 64L0 64L0 0Z" id="path_1" />
    <clipPath id="clip_1">
      <use xlink:href="#path_1" />
    </clipPath>
  </defs>
  <g id="hourglass" clip-path="url(#clip_1)">
    <path d="M0 0L64 0L64 64L0 64L0 0Z" id="hourglass" fill="none" fill-rule="evenodd" stroke="none" />
    <path d="M32.01 33.88L32 33.88C24.05 33.88 16.72 29.2 13.33 21.95C12.054 19.2346 11.3949 16.2703 11.4 13.27L11.4 1.88C11.4 0.84 12.24 0 13.28 0L50.73 0C51.77 0 52.61 0.84 52.61 1.88L52.61 13.27C52.61 16.29 51.96 19.21 50.68 21.95C47.29 29.2 39.96 33.88 32.01 33.88L32.01 33.88ZM15.16 3.76L15.16 13.27C15.16 15.74 15.69 18.12 16.74 20.35C19.51 26.28 25.5 30.11 32 30.11L32.01 30.11C38.51 30.11 44.5 26.28 47.27 20.35C48.32 18.12 48.85 15.73 48.85 13.26L48.85 3.76L15.16 3.76L15.16 3.76Z" id="Forme" fill="#FFFFFF" fill-rule="evenodd" stroke="none" />
    <path d="M32.01 33.88C30.9717 33.8828 30.1278 33.0433 30.125 32.005C30.1222 30.9667 30.9617 30.1228 32 30.12C33.04 30.12 33.89 30.96 33.89 32C33.8878 33.0373 33.0474 33.8778 32.01 33.88L32.01 33.88Z" id="Forme" fill="#FFFFFF" stroke="none" />
    <path d="M50.73 64L13.27 64C12.23 64 11.39 63.16 11.39 62.12L11.39 50.73C11.39 39.37 20.64 30.12 32 30.12C43.36 30.12 52.61 39.37 52.61 50.73L52.61 62.12C52.61 63.16 51.77 64 50.73 64L50.73 64ZM15.16 60.24L48.85 60.24L48.85 50.73C48.85 41.44 41.29 33.89 32.01 33.89C22.73 33.89 15.17 41.45 15.17 50.73L15.17 60.24L15.16 60.24ZM50.36 16.51C47.83 16.51 46.49 16.17 45.31 15.87C44.2 15.59 43.24 15.35 41.18 15.35C39.12 15.35 38.16 15.59 37.05 15.87C35.87 16.17 34.53 16.51 32 16.51C29.47 16.51 28.13 16.17 26.95 15.87C25.84 15.59 24.88 15.35 22.82 15.35C20.76 15.35 19.8 15.59 18.69 15.87C17.51 16.17 16.17 16.51 13.64 16.51C12.6 16.51 11.76 15.67 11.76 14.63C11.76 13.59 12.6 12.75 13.64 12.75C15.7 12.75 16.66 12.51 17.77 12.23C18.95 11.93 20.29 11.59 22.82 11.59C25.35 11.59 26.69 11.93 27.87 12.23C28.98 12.51 29.94 12.75 32 12.75C34.06 12.75 35.02 12.51 36.13 12.23C37.31 11.93 38.65 11.59 41.18 11.59C43.71 11.59 45.05 11.93 46.23 12.23C47.34 12.51 48.3 12.75 50.36 12.75C51.4 12.75 52.24 13.59 52.24 14.63C52.24 15.67 51.4 16.51 50.36 16.51L50.36 16.51ZM58.06 3.77L5.94 3.77C4.9 3.77 4.06 2.93 4.06 1.89C4.06 0.850002 4.9 0 5.94 0L58.07 0C59.11 0 59.95 0.84 59.95 1.88C59.95 2.92 59.1 3.77 58.06 3.77L58.06 3.77Z" id="Forme" fill="#FFFFFF" fill-rule="evenodd" stroke="none" />
    <path d="M58.06 64L5.94 64C4.9 64 4.06 63.16 4.06 62.12C4.06 61.08 4.9 60.24 5.94 60.24L58.07 60.24C59.11 60.24 59.95 61.08 59.95 62.12C59.95 63.16 59.1 64 58.06 64L58.06 64ZM50.73 57.15C50.65 57.15 50.56 57.14 50.48 57.13C46.42 56.59 40.71 55.08 36.58 50.96C30.97 45.34 30.19 36.75 30.12 33.32C30.09 32.48 30.12 31.96 30.12 31.9C30.18 30.91 31 30.13 32 30.13L32.22 30.13C32.8839 30.129 33.4989 30.4786 33.8378 31.0495C34.1766 31.6204 34.1889 32.3277 33.87 32.91C33.87 33.01 33.87 33.11 33.88 33.22C33.94 36.22 34.59 43.65 39.24 48.3C42.62 51.67 47.49 52.94 50.98 53.4C52.01 53.54 52.73 54.48 52.6 55.52C52.47 56.47 51.66 57.15 50.73 57.15L50.73 57.15Z" id="Forme" fill="#FFFFFF" fill-rule="evenodd" stroke="none" />
    <path d="M13.27 57.15C12.34 57.15 11.53 56.46 11.41 55.52C11.2739 54.4877 11.9982 53.5398 13.03 53.4C16.51 52.93 21.37 51.67 24.75 48.3C29.41 43.64 30.06 36.22 30.12 33.24C30.12 33.12 30.13 33.01 30.13 32.9C29.9828 32.6262 29.9039 32.3209 29.9 32.01C29.9 30.97 30.74 30.13 31.78 30.13L32 30.13C33 30.13 33.82 30.9 33.88 31.9C33.88 31.96 33.91 32.49 33.88 33.35C33.81 36.75 33.03 45.34 27.41 50.96C23.29 55.08 17.59 56.59 13.53 57.13C13.44 57.15 13.36 57.15 13.27 57.15L13.27 57.15Z" id="Forme" fill="#FFFFFF" stroke="none" />
  </g>
</svg>
